X: 1
N: The Misty Isle in Summer
N: 8x32S
P: Linda Gaul
C: Muriel A. Johnstone
C: from Goldring 10 Social, arr. T. Traub 10-16-02
L: 1/8
M: 4/4
K: D
A|"D"d>A F<D "G"G2 "A"F>E|"D"D2 F>D A>F (3dcd|"G"B>g "D"A>f "Em"G>e "D"F>d|"E"(3E^GB (3e^de (3cBA (3=gfe|
"D"d>A F<D "G"G2 "A"F>E|"Bm"D2 "A"E2 "D7"F>E F<A|"G"B2 (3dcB "D"(3Ade (3fga|"A7"(3gfe a>c "D"d2 d||
A|"D"d2 (3Adf a>f d>A|"G"(3BgB "D"(3AfA "Em"(3GeG "D"(3FdF|"A"E2 (3A,CE A>G F>E|"D"(3FA,F "Em"(3GA,G "D"A>A "A7"(3GFE|
"D"d2 (3Adf a>f d>A|"G"(3BgB "D"(3AfA "Em"(3GeG "D"(3FdF|"A"E>F (3GFE "D"(3FGA "G"(3Bcd|"A"(3cBA a>c "D"d2 d|]
